X:1
T:Title
%%score { 1 | 2 }
L:1/8
M:6/8
K:Db
V:1 treble nm="Grand Piano"
V:2 bass 
V:1
 z3 z2[Q:1/4=100] F | F2 F G2 F |[M:7/8] [DF]2 [DE] [DE]3 [DE] |[M:3/4] [CA]2 [CE] [DF]2 [EG] | %4
[M:5/8] F-F- F3 |[M:1/8] A |[M:3/4] A2 A d2 c | c2 B B2 [DB] | [DA]2[K:bass] [F,D] [A,DF]2 [A,CE] | %9
[M:7/4] [F,D]6 z2 z2 z4 |[M:3/8] [G,B,D]3 |[M:1/4] [F,A,D]2 |] %12
V:2
 z3 z2 [D,A,D] | [D,A,D]2 [D,A,D] [D,B,D]2 [D,A,D] |[M:7/8] [B,,=G,]2 [B,,G,] [B,,G,]3 [B,,G,] | %3
[M:3/4] [A,,G,]2 [A,,G,] [A,,A,]2 [A,,A,] |[M:5/8] [D,A,D]-[D,A,D]- [D,A,D]3 |[M:1/8] [E,G,C] | %6
[M:3/4] [F,A,D]2 [F,A,D] [F,A,D]2 [F,=A,D] | [G,B,D]2 [G,B,D] [G,B,D]2 [=G,,_F,] | %8
 [A,,F,]2 A,, A,,2 A,, |[M:7/4] D,6 z2 z2 z4 |[M:3/8] A,,3 |[M:1/4] D,2 |] %12

